!!!COM: Beethoven
!!!OTL: 9 Variationen uber "Quant' e piu bello" von G. Paisiello
!!!Variation: Variation 4 b
**function	**harm	**kern	**kern
*	*	*clefF4	*clefG2
*	*	*k[]	*k[]
*M2/4	*M2/4	*M2/4	*M2/4
*C:	*C:	*C:	*C:
8T	G:maj	8r	(8g 8gg
=105	=105	=105	=105
2T	C:maj	(8EL	8f#L 8ff#
.	.	8GJ	8gJ 8gg
.	.	8CL	8aL 8aa
.	.	8GJ)	8gJ) 8gg
=106	=106	=106	=106
2T	G:7/5	(8DL	8f'L 8ff'
.	.	8GJ	8d'J 8dd'
.	.	8FL	8B'L 8b'
.	.	8GJ)	(8gJ 8gg
=107	=107	=107	=107
2T	C:maj	(8EL	8f#L 8ff#
.	.	8GJ	8gJ 8gg
.	.	8CL	8aL 8aa
.	.	8GJ)	8gJ) 8gg
=108	=108	=108	=108
2T	G:7/5	(8DL	8f'L 8ff'
.	.	8GJ	8d'J 8dd'
.	.	8FL	8B'L 8b'
.	.	8GJ)	(8gJ 8gg
=109	=109	=109	=109
4T	C:maj/3	(8EL	8f#L 8ff#
.	.	8cJ	8gJ 8gg
4P	F:maj	8FL	8g#L 8gg#
.	.	8cJ)	8aJ 8aa
=110	=110	=110	=110
4D	B:dim7	(8FL 8A-	8b-L 8bb-
.	.	8dJ	8bJ 8bb
4D	F#:dim7	8F#L 8A	8ddL 8ddd
.	.	8e-J)	8ccJ) 8ccc
=111	=111	=111	=111
4D	C:maj/5	(8GL 8c	(8f#L 8ff#
.	.	8eJ	8gJ) 8gg
4D	G:7	8GL 8B	8r
.	.	8dJ)	8g 8gg
=112	=112	=112	=112
4.T	C:maj	8cL	4cc
.	.	8GJ	.
.	.	8C	8r
*-	*-	*-	*-
!!!EMD: Edited in humdrumR 0.7.0.3 on 2024-01-19
